sprint-1/assets/Logo/Logo-bandsite.svg

<?xml version="1.0" encoding="UTF-8"?>
<svg width="114px" height="19px" viewBox="0 0 114 19" version="1.1" xmlns="http://www.w3.org/2000/svg" xmlns:xlink="http://www.w3.org/1999/xlink">
    <!-- Generator: Sketch 52.6 (67491) - http://www.bohemiancoding.com/sketch -->
    <title>BANDSITE</title>
    <desc>Created with Sketch.</desc>
    <defs>
        <path d="M0.64,1.008 L5.704,1.008 C6.3440032,1.008 6.99199672,1.07599932 7.648,1.212 C8.30400328,1.34800068 8.8919974,1.57999836 9.412,1.908 C9.9320026,2.23600164 10.3559984,2.6799972 10.684,3.24 C11.0120016,3.8000028 11.176,4.50399576 11.176,5.352 C11.176,6.24800448 10.9040027,7.02799668 10.36,7.692 C9.81599728,8.35600332 9.08800456,8.79199896 8.176,9 L8.176,9.048 C9.28000552,9.17600064 10.1959964,9.60399636 10.924,10.332 C11.6520036,11.0600036 12.016,12.0479938 12.016,13.296 C12.016,14.0000035 11.8680015,14.6439971 11.572,15.228 C11.2759985,15.8120029 10.8560027,16.307998 10.312,16.716 C9.76799728,17.124002 9.10400392,17.4399989 8.32,17.664 C7.53599608,17.8880011 6.65600488,18 5.68,18 L0.64,18 L0.64,1.008 Z M2.368,8.448 L5.848,8.448 C6.26400208,8.448 6.68399788,8.40000048 7.108,8.304 C7.53200212,8.20799952 7.91999824,8.04400116 8.272,7.812 C8.62400176,7.57999884 8.90799892,7.27200192 9.124,6.888 C9.34000108,6.50399808 9.448,6.0320028 9.448,5.472 C9.448,4.92799728 9.34000108,4.46800188 9.124,4.092 C8.90799892,3.71599812 8.61600184,3.4080012 8.248,3.168 C7.87999816,2.9279988 7.44800248,2.75600052 6.952,2.652 C6.45599752,2.54799948 5.9280028,2.496 5.368,2.496 L2.368,2.496 L2.368,8.448 Z M2.368,16.512 L5.584,16.512 C6.20800312,16.512 6.80399716,16.4520006 7.372,16.332 C7.94000284,16.2119994 8.43599788,16.0200013 8.86,15.756 C9.28400212,15.4919987 9.62399872,15.1480021 9.88,14.724 C10.1360013,14.2999979 10.264,13.792003 10.264,13.2 C10.264,12.0799944 9.8840038,11.2440028 9.124,10.692 C8.3639962,10.1399972 7.28800696,9.864 5.896,9.864 L2.368,9.864 L2.368,16.512 Z M15.784,18 L13.888,18 L21.232,1.008 L22.912,1.008 L30.208,18 L28.288,18 L26.416,13.536 L17.632,13.536 L15.784,18 Z M18.28,11.952 L25.768,11.952 L22.024,2.928 L18.28,11.952 Z M44.752,15.48 L44.8,15.48 L44.8,1.008 L46.528,1.008 L46.528,18 L44.368,18 L34.48,3.384 L34.432,3.384 L34.432,18 L32.704,18 L32.704,1.008 L34.864,1.008 L44.752,15.48 Z M51.04,1.008 L56.68,1.008 C57.7360053,1.008 58.7959947,1.18399824 59.86,1.536 C60.9240053,1.88800176 61.8839957,2.41999644 62.74,3.132 C63.5960043,3.84400356 64.2879974,4.73199468 64.816,5.796 C65.3440026,6.86000532 65.608,8.09599296 65.608,9.504 C65.608,10.9280071 65.3440026,12.1679947 64.816,13.224 C64.2879974,14.2800053 63.5960043,15.1639964 62.74,15.876 C61.8839957,16.5880036 60.9240053,17.1199982 59.86,17.472 C58.7959947,17.8240018 57.7360053,18 56.68,18 L51.04,18 L51.04,1.008 Z M52.768,16.464 L56.2,16.464 C57.4800064,16.464 58.5959952,16.264002 59.548,15.864 C60.5000048,15.463998 61.2879969,14.9400032 61.912,14.292 C62.5360031,13.6439968 63.0039984,12.9040042 63.316,12.072 C63.6280016,11.2399958 63.784,10.3840044 63.784,9.504 C63.784,8.6239956 63.6280016,7.76800416 63.316,6.936 C63.0039984,6.10399584 62.5360031,5.36400324 61.912,4.716 C61.2879969,4.06799676 60.5000048,3.544002 59.548,3.144 C58.5959952,2.743998 57.4800064,2.544 56.2,2.544 L52.768,2.544 L52.768,16.464 Z M77.44,3.744 C77.0719982,3.23199744 76.6000029,2.82000156 76.024,2.508 C75.4479971,2.19599844 74.7520041,2.04 73.936,2.04 C73.5199979,2.04 73.0960022,2.10399936 72.664,2.232 C72.2319978,2.36000064 71.8400018,2.55599868 71.488,2.82 C71.1359982,3.08400132 70.8520011,3.415998 70.636,3.816 C70.4199989,4.216002 70.312,4.68799728 70.312,5.232 C70.312,5.77600272 70.415999,6.22399824 70.624,6.576 C70.832001,6.92800176 71.1079983,7.22799876 71.452,7.476 C71.7960017,7.72400124 72.1879978,7.9279992 72.628,8.088 C73.0680022,8.2480008 73.5279976,8.4079992 74.008,8.568 C74.600003,8.76000096 75.195997,8.96799888 75.796,9.192 C76.396003,9.41600112 76.9359976,9.7079982 77.416,10.068 C77.8960024,10.4280018 78.2879985,10.8839972 78.592,11.436 C78.8960015,11.9880028 79.048,12.6879958 79.048,13.536 C79.048,14.3840042 78.8840016,15.1159969 78.556,15.732 C78.2279984,16.3480031 77.8040026,16.855998 77.284,17.256 C76.7639974,17.656002 76.1720033,17.951999 75.508,18.144 C74.8439967,18.336001 74.1760034,18.432 73.504,18.432 C72.9919974,18.432 72.4800026,18.3800005 71.968,18.276 C71.4559974,18.1719995 70.9680023,18.016001 70.504,17.808 C70.0399977,17.599999 69.608002,17.3360016 69.208,17.016 C68.807998,16.6959984 68.4560015,16.3280021 68.152,15.912 L69.64,14.808 C70.0080018,15.416003 70.5239967,15.923998 71.188,16.332 C71.8520033,16.740002 72.6319955,16.944 73.528,16.944 C73.9600022,16.944 74.3999978,16.8760007 74.848,16.74 C75.2960022,16.6039993 75.6999982,16.3960014 76.06,16.116 C76.4200018,15.8359986 76.7159988,15.492002 76.948,15.084 C77.1800012,14.675998 77.296,14.2000027 77.296,13.656 C77.296,13.063997 77.1800012,12.572002 76.948,12.18 C76.7159988,11.787998 76.4080019,11.4600013 76.024,11.196 C75.6399981,10.9319987 75.2000025,10.7120009 74.704,10.536 C74.2079975,10.3599991 73.6880027,10.1840009 73.144,10.008 C72.5839972,9.83199912 72.0320027,9.63200112 71.488,9.408 C70.9439973,9.18399888 70.4560022,8.8920018 70.024,8.532 C69.5919978,8.1719982 69.2440013,7.72800264 68.98,7.2 C68.7159987,6.67199736 68.584,6.02400384 68.584,5.256 C68.584,4.43999592 68.7479984,3.73600296 69.076,3.144 C69.4040016,2.55199704 69.8319974,2.06400192 70.36,1.68 C70.8880026,1.29599808 71.4719968,1.01600088 72.112,0.84 C72.7520032,0.66399912 73.3839969,0.576 74.008,0.576 C75.1600058,0.576 76.1439959,0.77999796 76.96,1.188 C77.7760041,1.59600204 78.3919979,2.0799972 78.808,2.64 L77.44,3.744 Z M84.472,18 L82.744,18 L82.744,1.008 L84.472,1.008 L84.472,18 Z M94.432,18 L92.704,18 L92.704,2.544 L87.016,2.544 L87.016,1.008 L100.12,1.008 L100.12,2.544 L94.432,2.544 L94.432,18 Z M104.392,16.464 L113.488,16.464 L113.488,18 L102.664,18 L102.664,1.008 L113.2,1.008 L113.2,2.544 L104.392,2.544 L104.392,8.4 L112.624,8.4 L112.624,9.912 L104.392,9.912 L104.392,16.464 Z" id="path-1"></path>
    </defs>
    <g id="Page-1" stroke="none" stroke-width="1" fill="none" fill-rule="evenodd">
        <g id="BANDSITE">
            <use fill="#000000" xlink:href="#path-1"></use>
            <use fill="#FFFFFF" xlink:href="#path-1"></use>
        </g>
    </g>
</svg>

<svg width="114" height="19" xmlns="http://www.w3.org/2000/svg" xmlns:xlink="http://www.w3.org/1999/xlink"><defs><path d="M.64 1.008h5.064c.64 0 1.288.068 1.944.204a5.286 5.286 0 011.764.696c.52.328.944.772 1.272 1.332.328.56.492 1.264.492 2.112 0 .896-.272 1.676-.816 2.34-.544.664-1.272 1.1-2.184 1.308v.048c1.104.128 2.02.556 2.748 1.284.728.728 1.092 1.716 1.092 2.964 0 .704-.148 1.348-.444 1.932a4.239 4.239 0 01-1.26 1.488c-.544.408-1.208.724-1.992.948-.784.224-1.664.336-2.64.336H.64V1.008zm1.728 7.44h3.48c.416 0 .836-.048 1.26-.144a3.5 3.5 0 001.164-.492c.352-.232.636-.54.852-.924.216-.384.324-.856.324-1.416 0-.544-.108-1.004-.324-1.38a2.689 2.689 0 00-.876-.924c-.368-.24-.8-.412-1.296-.516a7.709 7.709 0 00-1.584-.156h-3v5.952zm0 8.064h3.216c.624 0 1.22-.06 1.788-.18a4.584 4.584 0 001.488-.576 3.069 3.069 0 001.02-1.032c.256-.424.384-.932.384-1.524 0-1.12-.38-1.956-1.14-2.508-.76-.552-1.836-.828-3.228-.828H2.368v6.648zM15.784 18h-1.896l7.344-16.992h1.68L30.208 18h-1.92l-1.872-4.464h-8.784L15.784 18zm2.496-6.048h7.488l-3.744-9.024-3.744 9.024zm26.472 3.528h.048V1.008h1.728V18h-2.16L34.48 3.384h-.048V18h-1.728V1.008h2.16l9.888 14.472zM51.04 1.008h5.64c1.056 0 2.116.176 3.18.528a8.771 8.771 0 012.88 1.596c.856.712 1.548 1.6 2.076 2.664s.792 2.3.792 3.708c0 1.424-.264 2.664-.792 3.72a8.125 8.125 0 01-2.076 2.652 8.771 8.771 0 01-2.88 1.596 10.075 10.075 0 01-3.18.528h-5.64V1.008zm1.728 15.456H56.2c1.28 0 2.396-.2 3.348-.6.952-.4 1.74-.924 2.364-1.572a6.42 6.42 0 001.404-2.22 7.257 7.257 0 00.468-2.568c0-.88-.156-1.736-.468-2.568a6.42 6.42 0 00-1.404-2.22c-.624-.648-1.412-1.172-2.364-1.572-.952-.4-2.068-.6-3.348-.6h-3.432v13.92zM77.44 3.744a4.15 4.15 0 00-1.416-1.236c-.576-.312-1.272-.468-2.088-.468-.416 0-.84.064-1.272.192a3.69 3.69 0 00-1.176.588 3.022 3.022 0 00-.852.996c-.216.4-.324.872-.324 1.416 0 .544.104.992.312 1.344.208.352.484.652.828.9s.736.452 1.176.612c.44.16.9.32 1.38.48.592.192 1.188.4 1.788.624.6.224 1.14.516 1.62.876.48.36.872.816 1.176 1.368.304.552.456 1.252.456 2.1 0 .848-.164 1.58-.492 2.196a4.648 4.648 0 01-1.272 1.524c-.52.4-1.112.696-1.776.888a7.182 7.182 0 01-2.004.288 7.698 7.698 0 01-1.536-.156c-.512-.104-1-.26-1.464-.468a5.988 5.988 0 01-1.296-.792c-.4-.32-.752-.688-1.056-1.104l1.488-1.104c.368.608.884 1.116 1.548 1.524.664.408 1.444.612 2.34.612a4.53 4.53 0 001.32-.204 3.712 3.712 0 001.212-.624c.36-.28.656-.624.888-1.032.232-.408.348-.884.348-1.428 0-.592-.116-1.084-.348-1.476a3.098 3.098 0 00-.924-.984 5.656 5.656 0 00-1.32-.66 58.73 58.73 0 00-1.56-.528 20.455 20.455 0 01-1.656-.6 5.601 5.601 0 01-1.464-.876A4.091 4.091 0 0168.98 7.2c-.264-.528-.396-1.176-.396-1.944 0-.816.164-1.52.492-2.112A4.45 4.45 0 0170.36 1.68a5.377 5.377 0 011.752-.84 7.128 7.128 0 011.896-.264c1.152 0 2.136.204 2.952.612.816.408 1.432.892 1.848 1.452L77.44 3.744zM84.472 18h-1.728V1.008h1.728V18zm9.96 0h-1.728V2.544h-5.688V1.008h13.104v1.536h-5.688V18zm9.96-1.536h9.096V18h-10.824V1.008H113.2v1.536h-8.808V8.4h8.232v1.512h-8.232v6.552z" id="a"/></defs><g fill="none" fill-rule="evenodd"><use fill="#000" xlink:href="#a"/><use fill="#FFF" xlink:href="#a"/></g></svg>
